X:1
T:Fanny Hensel 1805-1847
T:Text: Heinrich Heine (1797-1856)
T:Wandl' ich in dem Wald des Abends
T:(1835)
%%score [ 1 2 3 ]
L:1/8
Q:1/4=90
M:4/4
K:G
V:1 treble nm="Sopran 1"
V:2 treble nm="Sopran 2"
V:3 treble nm="Alt"
V:1
"^Andante"!p! B3 A G2 F2 | E2 F2 G2 B2 | B2 ^c2 d2 (cB) | B2 (^c^A) B2 z2 | c3 B A2 ^G2 | %5
w: Wandl' ich in dem|Wald des A- bends,|in dem träu- me *|ri- schen~ * ~Wald,|im- mer wan- delt|
 A2 B2 c2 e2 | e2 =f2 (ge) (dc) | c2 (dB) c2 z2 | z2 BB BBBe | e2 ^d2 z4 | z2 BB BBBd | %11
w: mir zur Sei- te|dei- ne zärt * li \-|che Ge \- stalt.|Ist es nicht dein wei- ßer|Schlei- er,|nicht dein sanf- tes An- ge-|
 (d2 ^c2) z4 | z2 cc ccBA | (GB) B2 z2 Be | (^dg) (fe) (de) (=dc) | (B4- BA)GA | B3 E E2 E2 | %17
w: sicht, *|o- der ist es nur der|Mond * schein, der durch|Tan * nen * dun * kel *|bricht, * * der durch|Tan- nen- dun- kel|
 c2 z2 z4 | z2 (e2 d2) c2 | B2 A2 G2 F2 | E2 F2 G2 A2 | d3 c B2 A2 | G2 z2 z4 | B3 A G2 F2 | %24
w: bricht,|o \- der|ist es nur der|Mond- schein, der durch|Tan- nen- dun- kel|bricht?|Sind es mei- ne|
 E2 F2 G2 B2 | B2 ^c2 d2 (cB) | B2 (^c^A) B2 z2 | e3 d c2 B2 | A2 B2 c2 e2 | e2 f2 (g4- | %30
w: eig- nen Trä- nen,|die ich lei- se *|rin- nen * hör',|o- der gehst du,|Lieb- ste, wirk- lich|wei- nend, wei-|
 g2 fe ^d4- | d2 e^d) (dc) (BA) | G2 z2 F2 z2 | E2 z2 A3 G | G2 z2 c3 B | B2 z2 z4 | e2 d2 c2 B2 | %37
w: |* nend * ne \- ben *|mir ein-|her, ne- ben|mir, ne- ben|mir,|o- der gehst du,|
 A2 G2 F2 c2 | B3 G A2 F2 | E4 z4 |] %40
w: Lieb- ste, wei- nend|ne- ben mir ein-|her?|
V:2
!p! G3 F E2 ^D2 | B,2 ^D2 E2 F2 | G2 G2 F2 (ED) | D2 (E^C) ^D2 z2 | E3 =F E2 D2 | E2 E2 E2 ^G2 | %6
w: Wandl' ich in dem|Wald des A- bends,|in dem träu- me *|ri- schen~ * ~Wald,|im- mer wan- delt|mir zur Sei- te|
 A2 (CD) (EG) (=FE) | E2 =F2 E2 z2 | z2 ^GG GGGG | A2 A2 z4 | z2 AA ^GGGG | G4 z4 | z2 AA AAGF | %13
w: dei- ne * zärt * li \-|che Ge- stalt.|Ist es nicht dein wei- ßer|Schlei- er,|nicht dein sanf- tes An- ge-|sicht,|o- der ist es nur der|
 (EG) G2 z2 GG | (FB) (AG) (FG) (FE) | (^DG FE DE)=DC | B,3 B, B,2 B,2 | E2 z2 z4 | z2 (F2 G2) A2 | %19
w: Mond * schein, der durch|Tan * nen * dun * kel *|bricht, * * * * * der durch|Tan- nen- dun- kel|bricht,|o \- der|
 D2 C2 D2 ^D2 | E2 ^D2 E2 D2 | D6 D2 | G3 F E2 ^D2 | E4 z4 | (B,^C) ^D2 E2 F2 | G2 (FE) F2 G2 | %26
w: ist es nur der|Mond- schein, nur der|Mond durch|Tan- nen- dun- kel|bricht?|Sind * es mei- ne|Trä- nen, * die ich|
 (DF) (E^C) (^D2 CD) | E6 =F2 | E2 (F^G) A2 G2 | A2 c2 (B2 ed | c2 AG F4- | F2 B2) (BA) (GF) | %32
w: rin- * nen * hör'. * *|o- der|gehst du, * Lieb- ste,|wei- nend, wei * *||* nend ne \- ben *|
 E2 z2 ^D2 z2 | E2 z2 E3 E | E2 z2 E3 E | E2 z2 z4 | E2 E2 E2 E2 | E2 E2 E2 A2 | G3 E F2 ^D2 | %39
w: mir ein-|her, ne- ben|mir, ne- ben|mir,|o- der gehst du,|Lieb- ste, wei- nend|ne- ben mir ein-|
 E4 z4 |] %40
w: her?|
V:3
 z8 |!p! G3 F E2 ^D2 | E2 _B,2 =B,2 E,2 | G,2 F,2 B,2 z2 | A,3 D C2 B,2 | C2 ^G,2 A,2 B,2 | %6
w: |Wandl' ich in dem|Wald des A- bends,|in dem Wald,|im- mer wan- delt|mir zur Sei- te|
 C2 A,2 G,3 G, | G,2 B,D C2 z2 | E3 E E2 z2 | z2 B,B, B,B,B,F | E2 ^D2 E2 z2 | z2 A,A, A,A,A,E | %12
w: dei- ne zärt- li-|che Ge \- stalt.|Ist es nicht,|ist es nicht dein wei- ßer|Schlei- er nicht,|nicht dein sanf- tes An- ge-|
 D2 z2 z2 ^DD | (E^D) (EF) (AG) (FE) | B,3 B, B,2 B,2 | (B,E) (^D^C) (B,=C)B,A, | G,3 G, ^G,2 G,2 | %17
w: sicht, o- der|ist * es * nur * der *|Mond- schein, der durch|Tan * nen * dun * kel, durch|Tan- nen- dun- kel|
 A,2 z2 z4 | (D4 E2) F2 | G2 A,2 B,2 B,2 | C2 C2 C2 C2 | B,3 A, G,2 C2 | (B,6 A,2) | %23
w: bricht,|o \- der|ist es nur der|Mond- schein, der durch|Tan- nen- dun- kel|bricht? *|
 G,3 F, E,2 A,2 | G,2 B,2 E2 ^D2 | E2 _B,2 =B,2 E,2 | F,2 F,2 B,2 z2 | C3 B, A,2 D2 | %28
w: Sind es mei- ne|eig- nen Trä- nen,|die ich lei- se|rin- nen hör',|o- der gehst du,|
 C2 E2 A,2 B,2 | C2 ^D2 (E4 | A,6 CB, | A,2 ^G,2) A,2 (B,C) | B,2 z2 B,2 z2 | C2 z2 C3 B, | %34
w: Lieb- ste, wirk- lich|wei- nend, wei-||* nend ne- ben *|mir ein-|her, ne- ben|
"^Wandl' ich in dem Wald des Abends   -   Seite 3" B,2 z2 A,3 ^G, | ^G,2 z2 z4 | C2 B,2 A,2 G,2 | %37
w: mir, ne- ben|mir,|o- der gehst du,|
 F,2 E,2 A,2 F,2 | B,2 z2 B,2 z2 | E4 z4 |] %40
w: wei- nend ne- ben|mir ein-|her?|

